X: 131
T: Cantantibus organis – Allegretto
C: Franciszek Walczyński
%%abc-version 2.0
%%abcx-abcm2ps-target-version 5.9.1 (29 Sep 2008)
%%abc-creator hum2abc beta
%%abcx-conversion-date 2021/10/04 07:38:39
%%abc-edited-by Kamil Watkowski
%%abcx-initial-encoding-date 2021-08-09
%%humdrum-veritas 1588008059
%%humdrum-veritas-data 2967092898
%%linebreak <none>
%%barnumbers 0
L: 1/8
M: 6/8
N: Derived from pl-kozmzk--mzk-m-346--033_walczynski-franciszek--cantantibus-organis-allegretto.krn
%%staves {1 2}
V: 1 clef=treble
V: 2 clef=bass
K: F
[V:1] !accent!cA/G/.F G!accent!C2 & z6 | 
[V:2] z6 & z6 | 
[V:1] .FFG!accent!A2z & .CDEF2x | 
[V:2] A,2C-C2z & .F,D,C,!accent!F,2x | 
[V:1] z6 & z6 | 
[V:2] z6 & !accent!CA,/G,/.F, G,!accent!_D,2 | 
[V:1] GGA!accent!F3 & FE2C3 | 
[V:2] C2B,A,3 & C,3F,,3 | 
[V:1] !accent!AF/E/.D E!accent!A,2 & z6 | 
[V:2] z6 & z6 | 
[V:1] .DDE!accent!F2z & A,B,^CD2x | 
[V:2] F,2A,-A,2z & .D,B,,A,,D,2x | 
[V:1] z6 & z6 | 
[V:2] z6 & !accent!A,F,/E,/.D, .E,=B,,2 | 
[V:1] .ABA-!accent!A3 & FGE^F3 | 
[V:2] CD^CD3 & C,G,,A,,D,,3 | 
[V:1] !accent!a^f/e/.d e!accent!A2 & z6 | 
[V:2] {/^G,,}A,,6[K:clef=treble] & D,,6 | 
[V:1] .dde^f2z & A=B^cd2x | 
[V:2] .^FFAA2z[K:clef=bass] & D=B,A,D2x | 
[V:1] !accent!A=F/E/.D E!accent!A,2 | 
[V:2] {/^G,,}A,,6 & D,,6 | 
[V:1] .DDG!accent!F3 & A,B,EF3 | 
[V:2] F,2B,A,3 & .D,,B,,C,F,,3 | 
[V:1] !accent!cA/G/F !accent!G!accent!C2 | 
[V:2] [C,6A,6]- & F,,6- | 
[V:1] !accent!FC/B,/.A, G,!accent!=E,2 | 
[V:2] [C,2A,2]>_D,2C,B,, & F,,6- | 
[V:1] F,3-!accent!F,2F, | 
[V:2] A,,3[B,,3_D,3] & F,,6- | 
[V:1] !fermata![C,6F,6A,6] |]  
[V:2] x6 & !fermata!F,,6 |]  


